X: 17808
T: Hop Break
R: jig
M: 6/8
K: Bminor
F|:B2c dcB|efg f2d|B2d fed|cAc edc|
B2c dcB|efg f2f|fed cAc|1 B3 B2F:|2 B3 B2d||
|:fdB fdB|gec gec|ecA ecA|fdB fdB|
dBG dBG|efg f2e|dcB AFA|1 B3 B2d:|2 B3 B2F||

